docs/assets/icons/material/account-details.svg

<?xml version="1.0" encoding="UTF-8" standalone="no"?>
<svg
   viewBox="0 0 24 24"
   version="1.1"
   id="svg1"
   sodipodi:docname="account-details-hover.svg"
   inkscape:export-filename="../cabf9191/account-details-hover.svg"
   inkscape:export-xdpi="96"
   inkscape:export-ydpi="96"
   inkscape:version="1.4.2 (2aeb623e1d, 2025-05-12)"
   xmlns:inkscape="http://www.inkscape.org/namespaces/inkscape"
   xmlns:sodipodi="http://sodipodi.sourceforge.net/DTD/sodipodi-0.dtd"
   xmlns="http://www.w3.org/2000/svg"
   xmlns:svg="http://www.w3.org/2000/svg">
  <defs
     id="defs1" />
  <sodipodi:namedview
     id="namedview1"
     pagecolor="#ffffff"
     bordercolor="#000000"
     borderopacity="0.25"
     inkscape:showpageshadow="2"
     inkscape:pageopacity="0.0"
     inkscape:pagecheckerboard="0"
     inkscape:deskcolor="#d1d1d1"
     inkscape:zoom="22.741779"
     inkscape:cx="11.388731"
     inkscape:cy="11.850436"
     inkscape:window-width="1920"
     inkscape:window-height="1065"
     inkscape:window-x="0"
     inkscape:window-y="32"
     inkscape:window-maximized="1"
     inkscape:current-layer="svg1" />
  <path
     d="M 22,4 V 6 H 13 V 4 Z"
     id="path5"
     style="fill:#00b9e4;fill-opacity:1" />
  <path
     d="m 22,8 v 2 H 13 V 8"
     id="path4"
     style="fill:#00b9e4;fill-opacity:1" />
  <path
     d="m 22,12 v 2 h -9 v -2"
     id="path3"
     style="fill:#00b9e4;fill-opacity:1" />
  <path
     d="M 14,20 H 2 v -2 c 0,-2.21 2.69,-4 6,-4 3.31,0 6,1.79 6,4"
     id="path2" />
  <path
     d="M 11,9 C 11,10.66 9.66,12 8,12 6.34,12 5,10.66 5,9 5,7.34 6.34,6 8,6 c 1.66,0 3,1.34 3,3"
     id="path1" />
</svg>

<svg xmlns="http://www.w3.org/2000/svg" viewBox="0 0 24 24"><path d="M11 9C11 10.66 9.66 12 8 12C6.34 12 5 10.66 5 9C5 7.34 6.34 6 8 6C9.66 6 11 7.34 11 9M14 20H2V18C2 15.79 4.69 14 8 14C11.31 14 14 15.79 14 18M22 12V14H13V12M22 8V10H13V8M22 4V6H13V4Z" /></svg>
